!!!COA: Ockeghem, Johannes
!!!CDT: ~1425-1497/02/06
!!!OTL: Permanent vierge / Pulchra es / Sancta Dei genitrix
!!!AGN: Song; Chanson
!!!SCT: Ock3027
!!!SCA: Ock3027
!!!voices: 5
**kern	**text	**kern	**text	**kern	**text	**kern	**text	**kern	**text
*staff5	*staff5	*staff4	*staff4	*staff3	*staff3	*staff2	*staff2	*staff1	*staff1
*Ivox	*	*Ivox	*	*Ivox	*	*Ivox	*	*Ivox	*
*I"Contratenor 2	*	*I"Tenor 2	*	*I"Tenor 1	*	*I"Contratenor 1	*	*I"Discantus	*
*I'Ct2	*	*I'T2]	*	*I'T1	*	*I'Ct1	*	*I'D	*
*clefF4	*	*clefF4	*	*clefGv2	*	*clefGv2	*	*clefG2	*
*k[]	*	*k[]	*	*k[]	*	*k[]	*	*k[]	*
*M3/1	*	*M3/1	*	*M3/1	*	*M3/1	*	*M3/1	*
*met(O)	*	*met(O)	*	*met(O)	*	*met(O)	*	*met(O)	*
*>A	*>A	*>A	*>A	*>A	*>A	*>A	*>A	*>A	*>A
=1-	=1-	=1-	=1-	=1-	=1-	=1-	=1-	=1-	=1-
!!LO:TX:Z=18:t=Chanson-Motet (French text in rondeau form)
0.r	.	0.r	.	0.r	.	1d	Per-	1d	Per-
.	.	.	.	.	.	2.f	.	2a	.
.	.	.	.	.	.	.	.	1a	-ma-
.	.	.	.	.	.	8eL	.	.	.
.	.	.	.	.	.	8dJ	.	.	.
.	.	.	.	.	.	2c	.	.	.
.	.	.	.	.	.	2d	-ma-	2f	.
=2	=2	=2	=2	=2	=2	=2	=2	=2	=2
2G	Per-	0.r	.	0.r	.	2B	-nent	2g	-nent
1F	.	.	.	.	.	2c	.	1a	.
.	.	.	.	.	.	2A	.	.	.
2D	-ma-	.	.	.	.	1d	.	2f	.
1A	-nent	.	.	.	.	.	.	1e	.
.	.	.	.	.	.	2c#i	.	.	.
=3	=3	=3	=3	=3	=3	=3	=3	=3	=3
0D	vierge,	0.r	.	0F	Pul-	2.d	vierge,	1d	vierge,
.	.	.	.	.	.	8cL	.	.	.
.	.	.	.	.	.	8BJ	.	.	.
.	.	.	.	.	.	2A	.	2r	.
.	.	.	.	.	.	2.F	plus	1f	plus
1D	plus	.	.	1F	-chra	.	.	.	.
.	.	.	.	.	.	4D	.	.	.
.	.	.	.	.	.	2F	.	2d	.
=4	=4	=4	=4	=4	=4	=4	=4	=4	=4
0AA	.	0.r	.	0A	es	1.E	.	2.c#	.
.	.	.	.	.	.	.	.	4d	.
.	.	.	.	.	.	.	.	1e	.
.	.	.	.	.	.	2F	.	.	.
1GG	dig-	.	.	[1B-	et	1G	.	2r	.
.	.	.	.	.	.	.	.	[2d	dig-
=5	=5	=5	=5	=5	=5	=5	=5	=5	=5
1G	-ne	0.r	.	1B-]	.	2r	.	2d]	.
.	.	.	.	.	.	2d	dig-	2d	-ne
4E	que	.	.	0G	de-	1c	-ne	1g	.
2C	.	.	.	.	.	.	.	.	.
4D	.	.	.	.	.	.	.	.	.
1E	.	.	.	.	.	1B	que	1g	que
=6	=6	=6	=6	=6	=6	=6	=6	=6	=6
1r	.	0D	Sanc-	1F	-co-	1A	.	0a	.
0F	ne-	.	.	0A	-ra,	2A	ne-	.	.
.	.	.	.	.	.	2.d	.	.	.
.	.	[1D	-ta	.	.	.	.	1a	ne-
.	.	.	.	.	.	4c	.	.	.
.	.	.	.	.	.	2d	.	.	.
=7	=7	=7	=7	=7	=7	=7	=7	=7	=7
1D	-su-	1D]	.	0.r	.	2A	-su-	2.f	-su-
.	.	.	.	.	.	2B	.	.	.
.	.	.	.	.	.	.	.	8eL	.
.	.	.	.	.	.	.	.	8dJ	.
1AA	.	0C	.	.	.	2c	.	1e	-ne,
.	.	.	.	.	.	4B	.	.	.
.	.	.	.	.	.	4A	.	.	.
1E	.	.	.	.	.	2.G	.	2r	.
.	.	.	.	.	.	.	.	2c	Fem-
.	.	.	.	.	.	8FL	.	.	.
.	.	.	.	.	.	8GJ	.	.	.
=8	=8	=8	=8	=8	=8	=8	=8	=8	=8
1D	-ne,	1F	de-	1A	fi-	1A	.	0d	.
1GG	.	1G	-i	1G	-li-	1B	-ne,	.	.
1D	Fem-	1F	ge-	1A	-a	2r	.	1f	.
.	.	.	.	.	.	2B	Fem-	.	.
=9	=9	=9	=9	=9	=9	=9	=9	=9	=9
1C	.	1G	-ni-	0.r	.	1.c	-me	2.e	.
.	.	.	.	.	.	.	.	4d	.
2AA	.	1A	.	.	.	.	.	2e	.
1D	-me	.	.	.	.	2B	.	2.f	-me
.	.	1A	-trix,	.	.	1A	.	.	.
.	.	.	.	.	.	.	.	4g	.
[2F	cou-	.	.	.	.	.	.	[2a	.
=10	=10	=10	=10	=10	=10	=10	=10	=10	=10
4F]	.	2A	vir-	0.r	.	2d	cou-	4a]	.
4G	.	.	.	.	.	.	.	4f	.
2A	.	2A	-go	.	.	2c	.	1f	cou-
2D	.	1A	sem-	.	.	4B	.	.	.
.	.	.	.	.	.	4A	.	.	.
2F	.	.	.	.	.	1d	.	2d	.
1E	.	1G	-per,	.	.	.	.	1e	-verte
.	.	.	.	.	.	2c#i	.	.	.
=11	=11	=11	=11	=11	=11	=11	=11	=11	=11
1D	-verte	0.r	.	1F	Jhe-	1d	-verte	2r	.
.	.	.	.	.	.	.	.	2f	du
0C	du	.	.	0G	-ru-	2G	du	4e	so-
.	.	.	.	.	.	.	.	4f	.
.	.	.	.	.	.	1c	.	2.g	.
.	.	.	.	.	.	.	.	4f	.
.	.	.	.	.	.	2c	so-	4e	.
.	.	.	.	.	.	.	.	4d	.
=12	=12	=12	=12	=12	=12	=12	=12	=12	=12
1D	.	1F	Ma-	1F	-sa-	2.A	-leil	1d	.
.	.	.	.	.	.	4B	.	.	.
1r	.	0G	-ri-	0E	.	2c	.	2e	.
.	.	.	.	.	.	4B	.	1d	.
.	.	.	.	.	.	4A	.	.	.
1E	so-	.	.	.	.	1G	.	.	.
.	.	.	.	.	.	.	.	2c#i	.
=13	=13	=13	=13	=13	=13	=13	=13	=13	=13
2F	-leil	0A	.	0D	-lem,	1r	.	1d	-leil
2D	.	.	.	.	.	.	.	.	.
1F	de	.	.	.	.	1A	de	1r	.
2E	jus-	1G	-a,	1r	.	2B	jus-	1e	de
2C	.	.	.	.	.	2c	.	.	.
=14	=14	=14	=14	=14	=14	=14	=14	=14	=14
2D	-ti-	0.r	.	1.F	Jhe-	2A	.	2f	jus-
1BB-i	.	.	.	.	.	2.B-	-ti-	4e	.
.	.	.	.	.	.	.	.	2d	-ti-
.	.	.	.	.	.	4G	.	4c	.
2C	.	.	.	2E	-ru-	1G	.	1c	.
1GG	-ce,	.	.	1D	-sa-	.	.	.	.
.	.	.	.	.	.	2G	.	2B	.
=15	=15	=15	=15	=15	=15	=15	=15	=15	=15
1r	.	1G	in-	0.C	-lem:	2.E	.	0.c	-ce,
.	.	.	.	.	.	4F	.	.	.
2E	Chief	1G	-ter-	.	.	1G	-ce,	.	.
2C	.	.	.	.	.	.	.	.	.
2.E	.	1G	-ce-	.	.	1r	.	.	.
4F	.	.	.	.	.	.	.	.	.
=16	=16	=16	=16	=16	=16	=16	=16	=16	=16
*>B	*>B	*>B	*>B	*>B	*>B	*>B	*>B	*>B	*>B
1G	.	1E	-de	0C	ter-	2.c	Chief	1r	.
.	.	.	.	.	.	4d	.	.	.
1E	cou-	1G	pro	.	.	1e	.	1r	.
2F	-ron-	1r	.	1D	.	1d	cou-	1A	Chief
[2D	.	.	.	.	.	.	.	.	.
=17	=17	=17	=17	=17	=17	=17	=17	=17	=17
2D]	.	1A	no-	1F	-ri-	2.d	-ron-	2.A	cou-
2F	.	.	.	.	.	.	.	.	.
.	.	.	.	.	.	4G	.	4B	.
1E	-ne	1G	.	1G	.	1G	-ne	1c	-ron-
2D	par	1F	-bis	[1A	-bi-	1r	.	1d	-ne
4C	.	.	.	.	.	.	.	.	.
4BB	.	.	.	.	.	.	.	.	.
=18	=18	=18	=18	=18	=18	=18	=18	=18	=18
1AA	.	0.r	.	1A]	.	0c	par	2r	.
.	.	.	.	.	.	.	.	1e	par
0C	di-	.	.	0G	-lis	.	.	.	.
.	.	.	.	.	.	.	.	1g	.
.	.	.	.	.	.	2.c	di-	.	.
.	.	.	.	.	.	.	.	2e	di-
.	.	.	.	.	.	4A	.	.	.
=19	=19	=19	=19	=19	=19	=19	=19	=19	=19
1D	-vin	1F	ad	0.r	.	1.A	-vin	2f	-vin
.	.	.	.	.	.	.	.	4e	.
.	.	.	.	.	.	.	.	4d	.
2F	ar-	1.F	do-	.	.	.	.	1c	.
2E	.	.	.	.	.	1c	ar-	.	.
1D	-ti-	.	.	.	.	.	.	2r	.
.	.	2F	-mi-	.	.	2B	-ti-	2f	ar-
=20	=20	=20	=20	=20	=20	=20	=20	=20	=20
0C	-fi-	0.E	-num	0G	ut	2.c	-fi-	1.g	-ti-
.	.	.	.	.	.	4d	.	.	.
.	.	.	.	.	.	0e	-ce	.	.
.	.	.	.	.	.	.	.	1.cc	-fi-
1AA	.	.	.	[1A	cas-	.	.	.	.
=21	=21	=21	=21	=21	=21	=21	=21	=21	=21
1D	-ce	0F	.	1A]	.	2r	.	1.a	.
.	.	.	.	.	.	1A	De	.	.
1r	.	.	.	0F	-tro-	.	.	.	.
.	.	.	.	.	.	2.c	douze	1f	.
1A	De	1r	.	.	.	.	.	.	.
.	.	.	.	.	.	4B	.	.	.
.	.	.	.	.	.	2A	.	2d	.
=22	=22	=22	=22	=22	=22	=22	=22	=22	=22
1B	douze	1G	Jhe-	1E	-rum	2G	.	1e	-ce
.	.	.	.	.	.	2B	.	.	.
2A	es-	1F	-sum,	1r	.	2c	.	2r	.
1d	-toil-	.	.	.	.	2.A	.	1a	De
.	.	1E	.	1r	.	.	.	.	.
.	.	.	.	.	.	4F	.	.	.
2c#i	.	.	.	.	.	2G	.	2g	.
=23	=23	=23	=23	=23	=23	=23	=23	=23	=23
1d	-les	0.r	.	1D	a-	2A	.	2f	douze
.	.	.	.	.	.	2B	es-	2d	es-
1G	.	.	.	1C	-ci-	1.c	-toil-	2e	-toil-
.	.	.	.	.	.	.	.	2.c	.
2r	.	.	.	2E	.	.	.	.	.
.	.	.	.	.	.	.	.	4B	.
2D	su-	.	.	2F	.	2d	.	2A	.
=24	=24	=24	=24	=24	=24	=24	=24	=24	=24
1E	.	0.r	.	0G	-es	1B	-les	4G	.
.	.	.	.	.	.	.	.	4A	.
.	.	.	.	.	.	.	.	4B	.
.	.	.	.	.	.	.	.	8A/L	.
.	.	.	.	.	.	.	.	8B/J	.
0C	-pe-	.	.	.	.	2r	.	2.c	.
.	.	.	.	.	.	2.e	su-	.	.
.	.	.	.	.	.	.	.	4d	.
.	.	.	.	1E	or-	.	.	1e	.
.	.	.	.	.	.	4c	.	.	.
.	.	.	.	.	.	2e	.	.	.
=25	=25	=25	=25	=25	=25	=25	=25	=25	=25
1D	-di-	0.r	.	1F	-di-	2d	-pe-	1A	-les
.	.	.	.	.	.	4A	.	.	.
.	.	.	.	.	.	4B	.	.	.
0AA	.	.	.	0E	-na-	2c	.	2r	.
.	.	.	.	.	.	4d	.	1a	su-
.	.	.	.	.	.	2e	.	.	.
.	.	.	.	.	.	4.c#i	-di-	.	.
.	.	.	.	.	.	.	.	2a	-pe-
.	.	.	.	.	.	8B	.	.	.
.	.	.	.	.	.	4c#i	.	.	.
=26	=26	=26	=26	=26	=26	=26	=26	=26	=26
1A	-tant	1r	.	1D	.	2d	-tant	2.f	-di-
.	.	.	.	.	.	4c	.	.	.
.	.	.	.	.	.	4B	.	4g	.
2.F	.	1r	.	1D	-ta,	1A	.	1a	-tant
4G	.	.	.	.	.	.	.	.	.
1A	.	1D	Jhe-	1r	.	2.F	la	1d	la
.	.	.	.	.	.	4G	.	.	.
=27	=27	=27	=27	=27	=27	=27	=27	=27	=27
1r	.	1D	-sum	0.r	.	1A	lu-	1f	lu-
2D	la	2F	Chris-	.	.	2B	.	2d	.
1C	lu-	2E	.	.	.	4c	.	2.e	.
.	.	.	.	.	.	4d	.	.	.
.	.	1G	.	.	.	2e	.	.	.
.	.	.	.	.	.	.	.	4c	.
2BB	.	.	.	.	.	2d	.	2d	.
=28	=28	=28	=28	=28	=28	=28	=28	=28	=28
2AA	.	2A	.	0.r	.	1c	.	2f	.
1C	.	1G	.	.	.	.	.	2.e	.
.	.	.	.	.	.	4c	-ne,	.	.
.	.	.	.	.	.	4B	.	4d	.
2D	.	2F	.	.	.	1A	.	2.d	.
1AA	-ne,	1E	.	.	.	.	.	.	.
.	.	.	.	.	.	.	.	4c#i	.
.	.	.	.	.	.	2A	la	4c#i	.
.	.	.	.	.	.	.	.	4B	.
=29	=29	=29	=29	=29	=29	=29	=29	=29	=29
1A	la	[0.Dl	-tum.	1D	or-	1.F	lu-	[0.dl	-ne.
0D	lu-	.	.	2.F	-di-	.	.	.	.
.	.	.	.	.	.	1B-i	.	.	.
.	.	.	.	4D	.	.	.	.	.
.	.	.	.	2.F	-na-	.	.	.	.
.	.	.	.	.	.	2A	.	.	.
.	.	.	.	4G	.	.	.	.	.
=30	=30	=30	=30	=30	=30	=30	=30	=30	=30
0.Dl	-ne.	0.D]	.	1A	.	0.Al	-ne.	0.d]	.
.	.	.	.	0Dl	-ta.	.	.	.	.
!!LO:LB:g=z
=||	=||	=||	=||	=||	=||	=||	=||	=||	=||
!!!RDF**kern: l = long note in original notation
!!!RDF**kern: i = editorial accidental
!!!RDF**kern: V = start of tuplet marker
!!!RDF**kern: Z = end of tuplet marker
!!!RDF**kern: N = signum congruentiae
!!!ENC: Jesse Rodin 17 April 2018
!!!END: 2018/04/17/
!!!EED: Jesse Rodin
!!!EEV: 2018/07/23/
!!!ONB: Translated from MusicXML and edited on 2018/07/23/ by Craig Sapp
!!!COA: Ockeghem, Johannes
!!!CDT: ~1425-1497/02/06
!!!OTL: Permanent vierge / Pulchra es / Sancta Dei genitrix
!!!AGN: Song; Chanson
!!!SCT: Ock3027
!!!SCA: Ock3027
!!!voices: 5
*thru	*thru	*thru	*thru	*thru	*thru	*thru	*thru	*thru	*thru
*staff5	*staff5	*staff4	*staff4	*staff3	*staff3	*staff2	*staff2	*staff1	*staff1
*Ivox	*	*Ivox	*	*Ivox	*	*Ivox	*	*Ivox	*
*I"Contratenor 2	*	*I"Tenor 2	*	*I"Tenor 1	*	*I"Contratenor 1	*	*I"Discantus	*
*I'Ct2	*	*I'T2]	*	*I'T1	*	*I'Ct1	*	*I'D	*
*clefF4	*	*clefF4	*	*clefGv2	*	*clefGv2	*	*clefG2	*
*k[]	*	*k[]	*	*k[]	*	*k[]	*	*k[]	*
*M3/1	*	*M3/1	*	*M3/1	*	*M3/1	*	*M3/1	*
*met(O)	*	*met(O)	*	*met(O)	*	*met(O)	*	*met(O)	*
*>A	*>A	*>A	*>A	*>A	*>A	*>A	*>A	*>A	*>A
=31-	=31-	=31-	=31-	=31-	=31-	=31-	=31-	=31-	=31-
!!LO:TX:Z=18:t=Chanson-Motet (French text in rondeau form)
0.r	.	0.r	.	0.r	.	1d	Es-	1d	Es-
.	.	.	.	.	.	2.f	.	2a	.
.	.	.	.	.	.	.	.	1a	-mer-
.	.	.	.	.	.	8eL	.	.	.
.	.	.	.	.	.	8dJ	.	.	.
.	.	.	.	.	.	2c	.	.	.
.	.	.	.	.	.	2d	-mer-	2f	.
=32	=32	=32	=32	=32	=32	=32	=32	=32	=32
2G	Es-	0.r	.	0.r	.	2B	-veil-	2g	-veil-
1F	.	.	.	.	.	2c	.	1a	.
.	.	.	.	.	.	2A	.	.	.
2D	-mer-	.	.	.	.	1d	.	2f	.
1A	-veil-	.	.	.	.	.	.	1e	.
.	.	.	.	.	.	2c#i	.	.	.
=33	=33	=33	=33	=33	=33	=33	=33	=33	=33
0D	-lant	0.r	.	0F	Pul-	2.d	-lant	1d	-lant
.	.	.	.	.	.	8cL	.	.	.
.	.	.	.	.	.	8BJ	.	.	.
.	.	.	.	.	.	2A	.	2r	.
.	.	.	.	.	.	2.F	na-	1f	na-
1D	na-	.	.	1F	-chra	.	.	.	.
.	.	.	.	.	.	4D	.	.	.
.	.	.	.	.	.	2F	.	2d	.
=34	=34	=34	=34	=34	=34	=34	=34	=34	=34
0AA	-ture	0.r	.	0A	es	1.E	-ture	2.c#	-ture
.	.	.	.	.	.	.	.	4d	.
.	.	.	.	.	.	.	.	1e	.
.	.	.	.	.	.	2F	.	.	.
1GG	.	.	.	[1B-	et	1G	.	2r	.
.	.	.	.	.	.	.	.	[2d	et
=35	=35	=35	=35	=35	=35	=35	=35	=35	=35
1G	et	0.r	.	1B-]	.	2r	.	2d]	.
.	.	.	.	.	.	2d	et	2d	loy
4E	loy	.	.	0G	de-	1c	loy	1g	.
2C	.	.	.	.	.	.	.	.	.
4D	.	.	.	.	.	.	.	.	.
1E	.	.	.	.	.	1B	.	1g	com-
=36	=36	=36	=36	=36	=36	=36	=36	=36	=36
1r	.	0D	Sanc-	1F	-co-	1A	.	0a	-mu-
0F	com-	.	.	0A	-ra,	2A	com-	.	.
.	.	.	.	.	.	2.d	.	.	.
.	.	[1D	-ta	.	.	.	.	1a	.
.	.	.	.	.	.	4c	.	.	.
.	.	.	.	.	.	2d	.	.	.
=37	=37	=37	=37	=37	=37	=37	=37	=37	=37
1D	-mu-	1D]	.	0.r	.	2A	-mu-	2.f	.
.	.	.	.	.	.	2B	.	.	.
.	.	.	.	.	.	.	.	8eL	.
.	.	.	.	.	.	.	.	8dJ	.
1AA	.	0C	.	.	.	2c	.	1e	-ne,
.	.	.	.	.	.	4B	.	.	.
.	.	.	.	.	.	4A	.	.	.
1E	.	.	.	.	.	2.G	.	2r	.
.	.	.	.	.	.	.	.	2c	Tu
.	.	.	.	.	.	8FL	.	.	.
.	.	.	.	.	.	8GJ	.	.	.
=38	=38	=38	=38	=38	=38	=38	=38	=38	=38
1D	-ne,	1F	de-	1A	fi-	1A	.	0d	.
1GG	.	1G	-i	1G	-li-	1B	-ne,	.	.
1D	Tu	1F	ge-	1A	-a	2r	.	1f	.
.	.	.	.	.	.	2B	Tu	.	.
=39	=39	=39	=39	=39	=39	=39	=39	=39	=39
1C	en-	1G	-ni-	0.r	.	1.c	en-	2.e	en-
.	.	.	.	.	.	.	.	4d	.
2AA	.	1A	.	.	.	.	.	2e	.
1D	.	.	.	.	.	2B	.	2.f	-fan-
.	.	1A	-trix,	.	.	1A	.	.	.
.	.	.	.	.	.	.	.	4g	.
[2F	-fan-	.	.	.	.	.	.	[2a	.
=40	=40	=40	=40	=40	=40	=40	=40	=40	=40
4F]	.	2A	vir-	0.r	.	2d	-fan-	4a]	.
4G	.	.	.	.	.	.	.	4f	.
2A	.	2A	-go	.	.	2c	.	1f	.
2D	.	1A	sem-	.	.	4B	.	.	.
.	.	.	.	.	.	4A	.	.	.
2F	.	.	.	.	.	1d	.	2d	.
1E	.	1G	-per,	.	.	.	.	1e	-tas
.	.	.	.	.	.	2c#i	.	.	.
=41	=41	=41	=41	=41	=41	=41	=41	=41	=41
1D	-tas	0.r	.	1F	Jhe-	1d	-tas	2r	.
.	.	.	.	.	.	.	.	2f	par
0C	par	.	.	0G	-ru-	2G	par	4e	su-
.	.	.	.	.	.	.	.	4f	.
.	.	.	.	.	.	1c	.	2.g	.
.	.	.	.	.	.	.	.	4f	.
.	.	.	.	.	.	2c	su-	4e	.
.	.	.	.	.	.	.	.	4d	.
=42	=42	=42	=42	=42	=42	=42	=42	=42	=42
1D	.	1F	Ma-	1F	-sa-	2.A	.	1d	.
.	.	.	.	.	.	4B	.	.	.
1r	.	0G	-ri-	0E	.	2c	.	2e	.
.	.	.	.	.	.	4B	-per-	1d	.
.	.	.	.	.	.	4A	.	.	.
1E	su-	.	.	.	.	1G	-nal	.	.
.	.	.	.	.	.	.	.	2c#i	-per-
=43	=43	=43	=43	=43	=43	=43	=43	=43	=43
2F	-per-	0A	.	0D	-lem,	1r	.	1d	-nal
2D	.	.	.	.	.	.	.	.	.
1F	-nal	.	.	.	.	1A	of-	1r	.
2E	of-	1G	.	1r	.	2B	.	1e	of-
2C	.	.	.	.	.	2c	.	.	.
=44	=44	=44	=44	=44	=44	=44	=44	=44	=44
2D	-fi-	0.r	.	1.F	Jhe-	2A	.	2f	-fi-
1BB-i	.	.	.	.	.	2.B-	-fi-	4e	.
.	.	.	.	.	.	.	.	2d	.
.	.	.	.	.	.	4G	.	4c	.
2C	.	.	.	2E	-ru-	1G	.	1c	.
1GG	-ce,&	.	.	1D	-sa-	.	.	.	.
.	.	.	.	.	.	2G	.	2B	.
=45	=45	=45	=45	=45	=45	=45	=45	=45	=45
1rN	.	1GN	-a,	0.CN	-lem:	2.E	.	0.cN	-ce,&
.	.	.	.	.	.	4F	.	.	.
2E	.	1G	.	.	.	1GN	-ce,	.	.
2C	.	.	.	.	.	.	.	.	.
2.E	.	1G	.	.	.	1r	.	.	.
4F	.	.	.	.	.	.	.	.	.
!!LO:LB:g=z
=	=	=	=	=	=	=	=	=	=
!!!RDF**kern: l = long note in original notation
!!!RDF**kern: i = editorial accidental
!!!RDF**kern: V = start of tuplet marker
!!!RDF**kern: Z = end of tuplet marker
!!!RDF**kern: N = signum congruentiae
!!!ENC: Jesse Rodin 17 April 2018
!!!END: 2018/04/17/
!!!EED: Jesse Rodin
!!!EEV: 2018/07/23/
!!!ONB: Translated from MusicXML and edited on 2018/07/23/ by Craig Sapp
!!!COA: Ockeghem, Johannes
!!!CDT: ~1425-1497/02/06
!!!OTL: Permanent vierge / Pulchra es / Sancta Dei genitrix
!!!AGN: Song; Chanson
!!!SCT: Ock3027
!!!SCA: Ock3027
!!!voices: 5
*thru	*thru	*thru	*thru	*thru	*thru	*thru	*thru	*thru	*thru
*staff5	*staff5	*staff4	*staff4	*staff3	*staff3	*staff2	*staff2	*staff1	*staff1
*Ivox	*	*Ivox	*	*Ivox	*	*Ivox	*	*Ivox	*
*I"Contratenor 2	*	*I"Tenor 2	*	*I"Tenor 1	*	*I"Contratenor 1	*	*I"Discantus	*
*I'Ct2	*	*I'T2]	*	*I'T1	*	*I'Ct1	*	*I'D	*
*clefF4	*	*clefF4	*	*clefGv2	*	*clefGv2	*	*clefG2	*
*k[]	*	*k[]	*	*k[]	*	*k[]	*	*k[]	*
*M3/1	*	*M3/1	*	*M3/1	*	*M3/1	*	*M3/1	*
*met(O)	*	*met(O)	*	*met(O)	*	*met(O)	*	*met(O)	*
*>A	*>A	*>A	*>A	*>A	*>A	*>A	*>A	*>A	*>A
=46-	=46-	=46-	=46-	=46-	=46-	=46-	=46-	=46-	=46-
!!LO:TX:Z=18:t=Chanson-Motet (French text in rondeau form)
0.r	.	0.r	.	0.r	.	1d	Per-	1d	Per-
.	.	.	.	.	.	2.f	.	2a	.
.	.	.	.	.	.	.	.	1a	-ma-
.	.	.	.	.	.	8eL	.	.	.
.	.	.	.	.	.	8dJ	.	.	.
.	.	.	.	.	.	2c	.	.	.
.	.	.	.	.	.	2d	-ma-	2f	.
=47	=47	=47	=47	=47	=47	=47	=47	=47	=47
2G	Per-	0.r	.	0.r	.	2B	-nent	2g	-nent
1F	.	.	.	.	.	2c	.	1a	.
.	.	.	.	.	.	2A	.	.	.
2D	-ma-	.	.	.	.	1d	.	2f	.
1A	-nent	.	.	.	.	.	.	1e	.
.	.	.	.	.	.	2c#i	.	.	.
=48	=48	=48	=48	=48	=48	=48	=48	=48	=48
0D	vierge,	0.r	.	0F	Pul-	2.d	vierge,	1d	vierge,
.	.	.	.	.	.	8cL	.	.	.
.	.	.	.	.	.	8BJ	.	.	.
.	.	.	.	.	.	2A	.	2r	.
.	.	.	.	.	.	2.F	plus	1f	plus
1D	plus	.	.	1F	-chra	.	.	.	.
.	.	.	.	.	.	4D	.	.	.
.	.	.	.	.	.	2F	.	2d	.
=49	=49	=49	=49	=49	=49	=49	=49	=49	=49
0AA	.	0.r	.	0A	es	1.E	.	2.c#	.
.	.	.	.	.	.	.	.	4d	.
.	.	.	.	.	.	.	.	1e	.
.	.	.	.	.	.	2F	.	.	.
1GG	dig-	.	.	[1B-	et	1G	.	2r	.
.	.	.	.	.	.	.	.	[2d	dig-
=50	=50	=50	=50	=50	=50	=50	=50	=50	=50
1G	-ne	0.r	.	1B-]	.	2r	.	2d]	.
.	.	.	.	.	.	2d	dig-	2d	-ne
4E	que	.	.	0G	de-	1c	-ne	1g	.
2C	.	.	.	.	.	.	.	.	.
4D	.	.	.	.	.	.	.	.	.
1E	.	.	.	.	.	1B	que	1g	que
=51	=51	=51	=51	=51	=51	=51	=51	=51	=51
1r	.	0D	Sanc-	1F	-co-	1A	.	0a	.
0F	ne-	.	.	0A	-ra,	2A	ne-	.	.
.	.	.	.	.	.	2.d	.	.	.
.	.	[1D	-ta	.	.	.	.	1a	ne-
.	.	.	.	.	.	4c	.	.	.
.	.	.	.	.	.	2d	.	.	.
=52	=52	=52	=52	=52	=52	=52	=52	=52	=52
1D	-su-	1D]	.	0.r	.	2A	-su-	2.f	-su-
.	.	.	.	.	.	2B	.	.	.
.	.	.	.	.	.	.	.	8eL	.
.	.	.	.	.	.	.	.	8dJ	.
1AA	.	0C	.	.	.	2c	.	1e	-ne,
.	.	.	.	.	.	4B	.	.	.
.	.	.	.	.	.	4A	.	.	.
1E	.	.	.	.	.	2.G	.	2r	.
.	.	.	.	.	.	.	.	2c	Fem-
.	.	.	.	.	.	8FL	.	.	.
.	.	.	.	.	.	8GJ	.	.	.
=53	=53	=53	=53	=53	=53	=53	=53	=53	=53
1D	-ne,	1F	de-	1A	fi-	1A	.	0d	.
1GG	.	1G	-i	1G	-li-	1B	-ne,	.	.
1D	Fem-	1F	ge-	1A	-a	2r	.	1f	.
.	.	.	.	.	.	2B	Fem-	.	.
=54	=54	=54	=54	=54	=54	=54	=54	=54	=54
1C	.	1G	-ni-	0.r	.	1.c	-me	2.e	.
.	.	.	.	.	.	.	.	4d	.
2AA	.	1A	.	.	.	.	.	2e	.
1D	-me	.	.	.	.	2B	.	2.f	-me
.	.	1A	-trix,	.	.	1A	.	.	.
.	.	.	.	.	.	.	.	4g	.
[2F	cou-	.	.	.	.	.	.	[2a	.
=55	=55	=55	=55	=55	=55	=55	=55	=55	=55
4F]	.	2A	vir-	0.r	.	2d	cou-	4a]	.
4G	.	.	.	.	.	.	.	4f	.
2A	.	2A	-go	.	.	2c	.	1f	cou-
2D	.	1A	sem-	.	.	4B	.	.	.
.	.	.	.	.	.	4A	.	.	.
2F	.	.	.	.	.	1d	.	2d	.
1E	.	1G	-per,	.	.	.	.	1e	-verte
.	.	.	.	.	.	2c#i	.	.	.
=56	=56	=56	=56	=56	=56	=56	=56	=56	=56
1D	-verte	0.r	.	1F	Jhe-	1d	-verte	2r	.
.	.	.	.	.	.	.	.	2f	du
0C	du	.	.	0G	-ru-	2G	du	4e	so-
.	.	.	.	.	.	.	.	4f	.
.	.	.	.	.	.	1c	.	2.g	.
.	.	.	.	.	.	.	.	4f	.
.	.	.	.	.	.	2c	so-	4e	.
.	.	.	.	.	.	.	.	4d	.
=57	=57	=57	=57	=57	=57	=57	=57	=57	=57
1D	.	1F	Ma-	1F	-sa-	2.A	-leil	1d	.
.	.	.	.	.	.	4B	.	.	.
1r	.	0G	-ri-	0E	.	2c	.	2e	.
.	.	.	.	.	.	4B	.	1d	.
.	.	.	.	.	.	4A	.	.	.
1E	so-	.	.	.	.	1G	.	.	.
.	.	.	.	.	.	.	.	2c#i	.
=58	=58	=58	=58	=58	=58	=58	=58	=58	=58
2F	-leil	0A	.	0D	-lem,	1r	.	1d	-leil
2D	.	.	.	.	.	.	.	.	.
1F	de	.	.	.	.	1A	de	1r	.
2E	jus-	1G	.	1r	.	2B	jus-	1e	de
2C	.	.	.	.	.	2c	.	.	.
=59	=59	=59	=59	=59	=59	=59	=59	=59	=59
2D	-ti-	0.r	.	1.F	Jhe-	2A	.	2f	jus-
1BB-i	.	.	.	.	.	2.B-	-ti-	4e	.
.	.	.	.	.	.	.	.	2d	-ti-
.	.	.	.	.	.	4G	.	4c	.
2C	.	.	.	2E	-ru-	1G	.	1c	.
1GG	-ce,	.	.	1D	-sa-	.	.	.	.
.	.	.	.	.	.	2G	.	2B	.
=60	=60	=60	=60	=60	=60	=60	=60	=60	=60
1rN	.	1GN	-a,	0.CN	-lem:	2.E	.	0.cN	-ce,
.	.	.	.	.	.	4F	.	.	.
2E	Chief	1G	.	.	.	1GN	-ce,	.	.
2C	.	.	.	.	.	.	.	.	.
2.E	.	1G	.	.	.	1r	.	.	.
4F	.	.	.	.	.	.	.	.	.
!!LO:LB:g=z
=	=	=	=	=	=	=	=	=	=
!!!RDF**kern: l = long note in original notation
!!!RDF**kern: i = editorial accidental
!!!RDF**kern: V = start of tuplet marker
!!!RDF**kern: Z = end of tuplet marker
!!!RDF**kern: N = signum congruentiae
!!!ENC: Jesse Rodin 17 April 2018
!!!END: 2018/04/17/
!!!EED: Jesse Rodin
!!!EEV: 2018/07/23/
!!!ONB: Translated from MusicXML and edited on 2018/07/23/ by Craig Sapp
!!!COA: Ockeghem, Johannes
!!!CDT: ~1425-1497/02/06
!!!OTL: Permanent vierge / Pulchra es / Sancta Dei genitrix
!!!AGN: Song; Chanson
!!!SCT: Ock3027
!!!SCA: Ock3027
!!!voices: 5
*staff5	*staff5	*staff4	*staff4	*staff3	*staff3	*staff2	*staff2	*staff1	*staff1
*Ivox	*	*Ivox	*	*Ivox	*	*Ivox	*	*Ivox	*
*I"Contratenor 2	*	*I"Tenor 2	*	*I"Tenor 1	*	*I"Contratenor 1	*	*I"Discantus	*
*I'Ct2	*	*I'T2]	*	*I'T1	*	*I'Ct1	*	*I'D	*
*clefF4	*	*clefF4	*	*clefGv2	*	*clefGv2	*	*clefG2	*
*k[]	*	*k[]	*	*k[]	*	*k[]	*	*k[]	*
*M3/1	*	*M3/1	*	*M3/1	*	*M3/1	*	*M3/1	*
*met(O)	*	*met(O)	*	*met(O)	*	*met(O)	*	*met(O)	*
*>A	*>A	*>A	*>A	*>A	*>A	*>A	*>A	*>A	*>A
=61-	=61-	=61-	=61-	=61-	=61-	=61-	=61-	=61-	=61-
!!LO:TX:Z=18:t=Chanson-Motet (French text in rondeau form)
0.r	.	0.r	.	0.r	.	1d	Pre-	1d	Pre-
.	.	.	.	.	.	2.f	.	2a	.
.	.	.	.	.	.	.	.	1a	-or-
.	.	.	.	.	.	8eL	.	.	.
.	.	.	.	.	.	8dJ	.	.	.
.	.	.	.	.	.	2c	.	.	.
.	.	.	.	.	.	2d	-or-	2f	.
=62	=62	=62	=62	=62	=62	=62	=62	=62	=62
2G	Pre-	0.r	.	0.r	.	2B	-don-	2g	-don-
1F	.	.	.	.	.	2c	.	1a	.
.	.	.	.	.	.	2A	.	.	.
2D	-or-	.	.	.	.	1d	.	2f	.
1A	-don-	.	.	.	.	.	.	1e	.
.	.	.	.	.	.	2c#i	.	.	.
=63	=63	=63	=63	=63	=63	=63	=63	=63	=63
0D	-nee	0.r	.	0F	Pul-	2.d	-nee	1d	-nee
.	.	.	.	.	.	8cL	.	.	.
.	.	.	.	.	.	8BJ	.	.	.
.	.	.	.	.	.	2A	.	2r	.
.	.	.	.	.	.	2.F	sans	1f	sans
1D	sans	.	.	1F	-chra	.	.	.	.
.	.	.	.	.	.	4D	.	.	.
.	.	.	.	.	.	2F	.	2d	.
=64	=64	=64	=64	=64	=64	=64	=64	=64	=64
0AA	dif-	0.r	.	0A	es	1.E	.	2.c#	.
.	.	.	.	.	.	.	.	4d	.
.	.	.	.	.	.	.	.	1e	.
.	.	.	.	.	.	2F	.	.	.
1GG	-fe-	.	.	[1B-	et	1G	.	2r	.
.	.	.	.	.	.	.	.	[2d	dif-
=65	=65	=65	=65	=65	=65	=65	=65	=65	=65
1G	-ran-	0.r	.	1B-]	.	2r	.	2d]	.
.	.	.	.	.	.	2d	dif-	2d	-fe-
4E	-ce	.	.	0G	de-	1c	-fe-	1g	.
2C	.	.	.	.	.	.	.	.	.
4D	.	.	.	.	.	.	.	.	.
1E	.	.	.	.	.	1B	-ran-	1g	-ran-
=66	=66	=66	=66	=66	=66	=66	=66	=66	=66
1r	.	0D	Sanc-	1F	-co-	1A	.	0a	.
0F	au-	.	.	0A	-ra,	2A	-ce au-	.	.
.	.	.	.	.	.	2.d	.	.	.
.	.	[1D	-ta	.	.	.	.	1a	-ce au-
.	.	.	.	.	.	4c	.	.	.
.	.	.	.	.	.	2d	.	.	.
=67	=67	=67	=67	=67	=67	=67	=67	=67	=67
1D	-cu-	1D]	.	0.r	.	2A	-cu-	2.f	-cu-
.	.	.	.	.	.	2B	.	.	.
.	.	.	.	.	.	.	.	8eL	.
.	.	.	.	.	.	.	.	8dJ	.
1AA	.	0C	.	.	.	2c	.	1e	-ne,
.	.	.	.	.	.	4B	.	.	.
.	.	.	.	.	.	4A	.	.	.
1E	.	.	.	.	.	2.G	.	2r	.
.	.	.	.	.	.	.	.	2c	Du
.	.	.	.	.	.	8FL	.	.	.
.	.	.	.	.	.	8GJ	.	.	.
=68	=68	=68	=68	=68	=68	=68	=68	=68	=68
1D	-ne,	1F	de-	1A	fi-	1A	.	0d	.
1GG	.	1G	-i	1G	-li-	1B	-ne,	.	.
1D	Du	1F	ge-	1A	-a	2r	.	1f	Re-
.	.	.	.	.	.	2B	Du	.	.
=69	=69	=69	=69	=69	=69	=69	=69	=69	=69
1C	Re-	1G	-ni-	0.r	.	1.c	Re-	2.e	-demp-
.	.	.	.	.	.	.	.	4d	.
2AA	.	1A	.	.	.	.	.	2e	.
1D	.	.	.	.	.	2B	.	2.f	-teur
.	.	1A	-trix,	.	.	1A	.	.	.
.	.	.	.	.	.	.	.	4g	.
[2F	-demp-	.	.	.	.	.	.	[2a	fil-
=70	=70	=70	=70	=70	=70	=70	=70	=70	=70
4F]	.	2A	vir-	0.r	.	2d	-demp-	4a]	.
4G	.	.	.	.	.	.	.	4f	.
2A	.	2A	-go	.	.	2c	.	1f	.
2D	.	1A	sem-	.	.	4B	.	.	.
.	.	.	.	.	.	4A	.	.	.
2F	.	.	.	.	.	1d	.	2d	.
1E	.	1G	-per,	.	.	.	.	1e	-le,
.	.	.	.	.	.	2c#i	.	.	.
=71	=71	=71	=71	=71	=71	=71	=71	=71	=71
1D	-teur	0.r	.	1F	Jhe-	1d	-teur	2r	.
.	.	.	.	.	.	.	.	2f	me-
0C	fil-	.	.	0G	-ru-	2G	fil-	4e	.
.	.	.	.	.	.	.	.	4f	.
.	.	.	.	.	.	1c	.	2.g	.
.	.	.	.	.	.	.	.	4f	.
.	.	.	.	.	.	2c	-le,	4e	.
.	.	.	.	.	.	.	.	4d	.
=72	=72	=72	=72	=72	=72	=72	=72	=72	=72
1D	-le,	1F	Ma-	1F	-sa-	2.A	me-	1d	.
.	.	.	.	.	.	4B	.	.	.
1r	.	0G	-ri-	0E	.	2c	.	2e	.
.	.	.	.	.	.	4B	.	1d	.
.	.	.	.	.	.	4A	.	.	.
1E	me-	.	.	.	.	1G	-re et	.	.
.	.	.	.	.	.	.	.	2c#i	.
=73	=73	=73	=73	=73	=73	=73	=73	=73	=73
2F	-re et	0A	.	0D	-lem,	1r	.	1d	-re et
2D	.	.	.	.	.	.	.	.	.
1F	.	.	.	.	.	1A	nour-	1r	.
2E	nour-	1G	-a,	1r	.	2B	-ri-	1e	nour-
2C	.	.	.	.	.	2c	.	.	.
=74	=74	=74	=74	=74	=74	=74	=74	=74	=74
2D	-ri-	0.r	.	1.F	Jhe-	2A	.	2f	-ri-
1BB-i	.	.	.	.	.	2.B-	.	4e	.
.	.	.	.	.	.	.	.	2d	.
.	.	.	.	.	.	4G	.	4c	.
2C	.	.	.	2E	-ru-	1G	.	1c	.
1GG	-ce,	.	.	1D	-sa-	.	.	.	.
.	.	.	.	.	.	2G	.	2B	.
=75	=75	=75	=75	=75	=75	=75	=75	=75	=75
1r	.	1G	in-	0.C	-lem:	2.E	.	0.c	-ce,
.	.	.	.	.	.	4F	.	.	.
2E	Soi-	1G	-ter-	.	.	1G	-ce,	.	.
2C	.	.	.	.	.	.	.	.	.
2.E	.	1G	-ce-	.	.	1r	.	.	.
4F	.	.	.	.	.	.	.	.	.
=76	=76	=76	=76	=76	=76	=76	=76	=76	=76
*>B	*>B	*>B	*>B	*>B	*>B	*>B	*>B	*>B	*>B
1G	.	1E	-de	0C	ter-	2.c	Soi-	1r	.
.	.	.	.	.	.	4d	.	.	.
1E	-ez	1G	pro	.	.	1e	.	1r	.
2F	pour	1r	.	1D	.	1d	-ez	1A	Soi-
[2D	.	.	.	.	.	.	.	.	.
=77	=77	=77	=77	=77	=77	=77	=77	=77	=77
2D]	.	1A	no-	1F	-ri-	2.d	pour	2.A	-ez
2F	.	.	.	.	.	.	.	.	.
.	.	.	.	.	.	4G	.	4B	.
1E	nous	1G	.	1G	.	1G	nous	1c	pour
2D	ad-	1F	-bis	[1A	-bi-	1r	.	1d	nous
4C	.	.	.	.	.	.	.	.	.
4BB	.	.	.	.	.	.	.	.	.
=78	=78	=78	=78	=78	=78	=78	=78	=78	=78
1AA	-vo-	0.r	.	1A]	.	0c	ad-	2r	.
.	.	.	.	.	.	.	.	1e	ad-
0C	-ca-	.	.	0G	-lis	.	.	.	.
.	.	.	.	.	.	.	.	1g	.
.	.	.	.	.	.	2.c	-vo-	.	.
.	.	.	.	.	.	.	.	2e	-vo-
.	.	.	.	.	.	4A	.	.	.
=79	=79	=79	=79	=79	=79	=79	=79	=79	=79
1D	-te	1F	ad	0.r	.	1.A	-ca-	2f	-ca-
.	.	.	.	.	.	.	.	4e	.
.	.	.	.	.	.	.	.	4d	.
2F	pro-	1.F	do-	.	.	.	.	1c	-te
2E	.	.	.	.	.	1c	-te	.	.
1D	.	.	.	.	.	.	.	2r	.
.	.	2F	-mi-	.	.	2B	pro-	2f	pro-
=80	=80	=80	=80	=80	=80	=80	=80	=80	=80
0C	-pi-	0.E	-num	0G	ut	2.c	-pi-	1.g	.
.	.	.	.	.	.	4d	.	.	.
.	.	.	.	.	.	0e	-ce,	.	.
.	.	.	.	.	.	.	.	1.cc	-pi-
1AA	.	.	.	[1A	cas-	.	.	.	.
=81	=81	=81	=81	=81	=81	=81	=81	=81	=81
1D	-ce,	0F	.	1A]	.	2r	.	1.a	.
.	.	.	.	.	.	1A	Toy	.	.
1r	.	.	.	0F	-tro-	.	.	.	.
.	.	.	.	.	.	2.c	sup-	1f	.
1A	Toy	1r	.	.	.	.	.	.	.
.	.	.	.	.	.	4B	.	.	.
.	.	.	.	.	.	2A	.	2d	.
=82	=82	=82	=82	=82	=82	=82	=82	=82	=82
1B	sup-	1G	Jhe-	1E	-rum	2G	.	1e	-ce,
.	.	.	.	.	.	2B	.	.	.
2A	-pli-	1F	-sum,	1r	.	2c	.	2r	.
1d	.	.	.	.	.	2.A	.	1a	Toy
.	.	1E	.	1r	.	.	.	.	.
.	.	.	.	.	.	4F	.	.	.
2c#i	.	.	.	.	.	2G	.	2g	.
=83	=83	=83	=83	=83	=83	=83	=83	=83	=83
1d	-ons,	0.r	.	1D	a-	2A	.	2f	sup-
.	.	.	.	.	.	2B	-pli-	2d	-pli-
1G	.	.	.	1C	-ci-	1.c	-ons,	2e	.
.	.	.	.	.	.	.	.	2.c	.
2r	.	.	.	2E	.	.	.	.	.
.	.	.	.	.	.	.	.	4B	.
2D	tr&egrave;s	.	.	2F	.	2d	.	2A	.
=84	=84	=84	=84	=84	=84	=84	=84	=84	=84
1E	.	0.r	.	0G	-es	1B	.	4G	.
.	.	.	.	.	.	.	.	4A	.
.	.	.	.	.	.	.	.	4B	.
.	.	.	.	.	.	.	.	8A/L	.
.	.	.	.	.	.	.	.	8B/J	.
0C	bel-	.	.	.	.	2r	.	2.c	.
.	.	.	.	.	.	2.e	tr&egrave;s	.	.
.	.	.	.	.	.	.	.	4d	.
.	.	.	.	1E	or-	.	.	1e	.
.	.	.	.	.	.	4c	.	.	.
.	.	.	.	.	.	2e	.	.	.
=85	=85	=85	=85	=85	=85	=85	=85	=85	=85
1D	-le,	0.r	.	1F	-di-	2d	bel-	1A	-ons,
.	.	.	.	.	.	4A	.	.	.
.	.	.	.	.	.	4B	.	.	.
0AA	.	.	.	0E	-na-	2c	.	2r	.
.	.	.	.	.	.	4d	.	1a	tr&egrave;s
.	.	.	.	.	.	2e	.	.	.
.	.	.	.	.	.	4.c#i	-le,	.	.
.	.	.	.	.	.	.	.	2a	bel-
.	.	.	.	.	.	8B	.	.	.
.	.	.	.	.	.	4c#i	.	.	.
=86	=86	=86	=86	=86	=86	=86	=86	=86	=86
1A	cle-	1r	.	1D	.	2d	cle-	2.f	-le,
.	.	.	.	.	.	4c	.	.	.
.	.	.	.	.	.	4B	.	4g	.
2.F	-re,	1r	.	1D	-ta,	1A	-re,	1a	cle-
4G	.	.	.	.	.	.	.	.	.
1A	.	1D	Jhe-	1r	.	2.F	bru-	1d	-re,
.	.	.	.	.	.	4G	.	.	.
=87	=87	=87	=87	=87	=87	=87	=87	=87	=87
1r	.	1D	-sum	0.r	.	1A	.	1f	bru-
2D	bru-	2F	Chris-	.	.	2B	.	2d	.
1C	.	2E	.	.	.	4c	.	2.e	.
.	.	.	.	.	.	4d	.	.	.
.	.	1G	.	.	.	2e	.	.	.
.	.	.	.	.	.	.	.	4c	.
2BB	.	.	.	.	.	2d	.	2d	.
=88	=88	=88	=88	=88	=88	=88	=88	=88	=88
2AA	.	2A	.	0.r	.	1c	.	2f	.
1C	.	1G	.	.	.	.	.	2.e	.
.	.	.	.	.	.	4c	-ne,	.	.
.	.	.	.	.	.	4B	.	4d	.
2D	.	2F	.	.	.	1A	.	2.d	.
1AA	-ne,	1E	.	.	.	.	.	.	.
.	.	.	.	.	.	.	.	4c#i	.
.	.	.	.	.	.	2A	bru-	4c#i	.
.	.	.	.	.	.	.	.	4B	.
=89	=89	=89	=89	=89	=89	=89	=89	=89	=89
1A	bru-	[0.Dl	-tum.	1D	or-	1.F	.	[0.dl	-ne.
0D	.	.	.	2.F	-di-	.	.	.	.
.	.	.	.	.	.	1B-i	.	.	.
.	.	.	.	4D	.	.	.	.	.
.	.	.	.	2.F	-na-	.	.	.	.
.	.	.	.	.	.	2A	.	.	.
.	.	.	.	4G	.	.	.	.	.
=90	=90	=90	=90	=90	=90	=90	=90	=90	=90
0.Dl	-ne.	0.D]	.	1A	.	0.Al	-ne.	0.d]	.
.	.	.	.	0Dl	-ta.	.	.	.	.
!!LO:LB:g=z
=||	=||	=||	=||	=||	=||	=||	=||	=||	=||
!!!RDF**kern: l = long note in original notation
!!!RDF**kern: i = editorial accidental
!!!RDF**kern: V = start of tuplet marker
!!!RDF**kern: Z = end of tuplet marker
!!!RDF**kern: N = signum congruentiae
!!!ENC: Jesse Rodin 17 April 2018
!!!END: 2018/04/17/
!!!EED: Jesse Rodin
!!!EEV: 2018/07/23/
!!!ONB: Translated from MusicXML and edited on 2018/07/23/ by Craig Sapp
!!!COA: Ockeghem, Johannes
!!!CDT: ~1425-1497/02/06
!!!OTL: Permanent vierge / Pulchra es / Sancta Dei genitrix
!!!AGN: Song; Chanson
!!!SCT: Ock3027
!!!SCA: Ock3027
!!!voices: 5
*staff5	*staff5	*staff4	*staff4	*staff3	*staff3	*staff2	*staff2	*staff1	*staff1
*Ivox	*	*Ivox	*	*Ivox	*	*Ivox	*	*Ivox	*
*I"Contratenor 2	*	*I"Tenor 2	*	*I"Tenor 1	*	*I"Contratenor 1	*	*I"Discantus	*
*I'Ct2	*	*I'T2]	*	*I'T1	*	*I'Ct1	*	*I'D	*
*clefF4	*	*clefF4	*	*clefGv2	*	*clefGv2	*	*clefG2	*
*k[]	*	*k[]	*	*k[]	*	*k[]	*	*k[]	*
*M3/1	*	*M3/1	*	*M3/1	*	*M3/1	*	*M3/1	*
*met(O)	*	*met(O)	*	*met(O)	*	*met(O)	*	*met(O)	*
*>A	*>A	*>A	*>A	*>A	*>A	*>A	*>A	*>A	*>A
=91-	=91-	=91-	=91-	=91-	=91-	=91-	=91-	=91-	=91-
!!LO:TX:Z=18:t=Chanson-Motet (French text in rondeau form)
0.r	.	0.r	.	0.r	.	1d	Per-	1d	Per-
.	.	.	.	.	.	2.f	.	2a	.
.	.	.	.	.	.	.	.	1a	-ma-
.	.	.	.	.	.	8eL	.	.	.
.	.	.	.	.	.	8dJ	.	.	.
.	.	.	.	.	.	2c	.	.	.
.	.	.	.	.	.	2d	-ma-	2f	.
=92	=92	=92	=92	=92	=92	=92	=92	=92	=92
2G	Per-	0.r	.	0.r	.	2B	-nent	2g	-nent
1F	.	.	.	.	.	2c	.	1a	.
.	.	.	.	.	.	2A	.	.	.
2D	-ma-	.	.	.	.	1d	.	2f	.
1A	-nent	.	.	.	.	.	.	1e	.
.	.	.	.	.	.	2c#i	.	.	.
=93	=93	=93	=93	=93	=93	=93	=93	=93	=93
0D	vierge,	0.r	.	0F	Pul-	2.d	vierge,	1d	vierge,
.	.	.	.	.	.	8cL	.	.	.
.	.	.	.	.	.	8BJ	.	.	.
.	.	.	.	.	.	2A	.	2r	.
.	.	.	.	.	.	2.F	plus	1f	plus
1D	plus	.	.	1F	-chra	.	.	.	.
.	.	.	.	.	.	4D	.	.	.
.	.	.	.	.	.	2F	.	2d	.
=94	=94	=94	=94	=94	=94	=94	=94	=94	=94
0AA	.	0.r	.	0A	es	1.E	.	2.c#	.
.	.	.	.	.	.	.	.	4d	.
.	.	.	.	.	.	.	.	1e	.
.	.	.	.	.	.	2F	.	.	.
1GG	dig-	.	.	[1B-	et	1G	.	2r	.
.	.	.	.	.	.	.	.	[2d	dig-
=95	=95	=95	=95	=95	=95	=95	=95	=95	=95
1G	-ne	0.r	.	1B-]	.	2r	.	2d]	.
.	.	.	.	.	.	2d	dig-	2d	-ne
4E	que	.	.	0G	de-	1c	-ne	1g	.
2C	.	.	.	.	.	.	.	.	.
4D	.	.	.	.	.	.	.	.	.
1E	.	.	.	.	.	1B	que	1g	que
=96	=96	=96	=96	=96	=96	=96	=96	=96	=96
1r	.	0D	Sanc-	1F	-co-	1A	.	0a	.
0F	ne-	.	.	0A	-ra,	2A	ne-	.	.
.	.	.	.	.	.	2.d	.	.	.
.	.	[1D	-ta	.	.	.	.	1a	ne-
.	.	.	.	.	.	4c	.	.	.
.	.	.	.	.	.	2d	.	.	.
=97	=97	=97	=97	=97	=97	=97	=97	=97	=97
1D	-su-	1D]	.	0.r	.	2A	-su-	2.f	-su-
.	.	.	.	.	.	2B	.	.	.
.	.	.	.	.	.	.	.	8eL	.
.	.	.	.	.	.	.	.	8dJ	.
1AA	.	0C	.	.	.	2c	.	1e	-ne,
.	.	.	.	.	.	4B	.	.	.
.	.	.	.	.	.	4A	.	.	.
1E	.	.	.	.	.	2.G	.	2r	.
.	.	.	.	.	.	.	.	2c	Fem-
.	.	.	.	.	.	8FL	.	.	.
.	.	.	.	.	.	8GJ	.	.	.
=98	=98	=98	=98	=98	=98	=98	=98	=98	=98
1D	-ne,	1F	de-	1A	fi-	1A	.	0d	.
1GG	.	1G	-i	1G	-li-	1B	-ne,	.	.
1D	Fem-	1F	ge-	1A	-a	2r	.	1f	.
.	.	.	.	.	.	2B	Fem-	.	.
=99	=99	=99	=99	=99	=99	=99	=99	=99	=99
1C	.	1G	-ni-	0.r	.	1.c	-me	2.e	.
.	.	.	.	.	.	.	.	4d	.
2AA	.	1A	.	.	.	.	.	2e	.
1D	-me	.	.	.	.	2B	.	2.f	-me
.	.	1A	-trix,	.	.	1A	.	.	.
.	.	.	.	.	.	.	.	4g	.
[2F	cou-	.	.	.	.	.	.	[2a	.
=100	=100	=100	=100	=100	=100	=100	=100	=100	=100
4F]	.	2A	vir-	0.r	.	2d	cou-	4a]	.
4G	.	.	.	.	.	.	.	4f	.
2A	.	2A	-go	.	.	2c	.	1f	cou-
2D	.	1A	sem-	.	.	4B	.	.	.
.	.	.	.	.	.	4A	.	.	.
2F	.	.	.	.	.	1d	.	2d	.
1E	.	1G	-per,	.	.	.	.	1e	-verte
.	.	.	.	.	.	2c#i	.	.	.
=101	=101	=101	=101	=101	=101	=101	=101	=101	=101
1D	-verte	0.r	.	1F	Jhe-	1d	-verte	2r	.
.	.	.	.	.	.	.	.	2f	du
0C	du	.	.	0G	-ru-	2G	du	4e	so-
.	.	.	.	.	.	.	.	4f	.
.	.	.	.	.	.	1c	.	2.g	.
.	.	.	.	.	.	.	.	4f	.
.	.	.	.	.	.	2c	so-	4e	.
.	.	.	.	.	.	.	.	4d	.
=102	=102	=102	=102	=102	=102	=102	=102	=102	=102
1D	.	1F	Ma-	1F	-sa-	2.A	-leil	1d	.
.	.	.	.	.	.	4B	.	.	.
1r	.	0G	-ri-	0E	.	2c	.	2e	.
.	.	.	.	.	.	4B	.	1d	.
.	.	.	.	.	.	4A	.	.	.
1E	so-	.	.	.	.	1G	.	.	.
.	.	.	.	.	.	.	.	2c#i	.
=103	=103	=103	=103	=103	=103	=103	=103	=103	=103
2F	-leil	0A	.	0D	-lem,	1r	.	1d	-leil
2D	.	.	.	.	.	.	.	.	.
1F	de	.	.	.	.	1A	de	1r	.
2E	jus-	1G	-a,	1r	.	2B	jus-	1e	de
2C	.	.	.	.	.	2c	.	.	.
=104	=104	=104	=104	=104	=104	=104	=104	=104	=104
2D	-ti-	0.r	.	1.F	Jhe-	2A	.	2f	jus-
1BB-i	.	.	.	.	.	2.B-	-ti-	4e	.
.	.	.	.	.	.	.	.	2d	-ti-
.	.	.	.	.	.	4G	.	4c	.
2C	.	.	.	2E	-ru-	1G	.	1c	.
1GG	-ce,	.	.	1D	-sa-	.	.	.	.
.	.	.	.	.	.	2G	.	2B	.
=105	=105	=105	=105	=105	=105	=105	=105	=105	=105
1r	.	1G	in-	0.C	-lem:	2.E	.	0.c	-ce,
.	.	.	.	.	.	4F	.	.	.
2E	Chief	1G	-ter-	.	.	1G	-ce,	.	.
2C	.	.	.	.	.	.	.	.	.
2.E	.	1G	-ce-	.	.	1r	.	.	.
4F	.	.	.	.	.	.	.	.	.
=106	=106	=106	=106	=106	=106	=106	=106	=106	=106
*>B	*>B	*>B	*>B	*>B	*>B	*>B	*>B	*>B	*>B
1G	.	1E	-de	0C	ter-	2.c	Chief	1r	.
.	.	.	.	.	.	4d	.	.	.
1E	cou-	1G	pro	.	.	1e	.	1r	.
2F	-ron-	1r	.	1D	.	1d	cou-	1A	Chief
[2D	.	.	.	.	.	.	.	.	.
=107	=107	=107	=107	=107	=107	=107	=107	=107	=107
2D]	.	1A	no-	1F	-ri-	2.d	-ron-	2.A	cou-
2F	.	.	.	.	.	.	.	.	.
.	.	.	.	.	.	4G	.	4B	.
1E	-ne	1G	.	1G	.	1G	-ne	1c	-ron-
2D	par	1F	-bis	[1A	-bi-	1r	.	1d	-ne
4C	.	.	.	.	.	.	.	.	.
4BB	.	.	.	.	.	.	.	.	.
=108	=108	=108	=108	=108	=108	=108	=108	=108	=108
1AA	.	0.r	.	1A]	.	0c	par	2r	.
.	.	.	.	.	.	.	.	1e	par
0C	di-	.	.	0G	-lis	.	.	.	.
.	.	.	.	.	.	.	.	1g	.
.	.	.	.	.	.	2.c	di-	.	.
.	.	.	.	.	.	.	.	2e	di-
.	.	.	.	.	.	4A	.	.	.
=109	=109	=109	=109	=109	=109	=109	=109	=109	=109
1D	-vin	1F	ad	0.r	.	1.A	-vin	2f	-vin
.	.	.	.	.	.	.	.	4e	.
.	.	.	.	.	.	.	.	4d	.
2F	ar-	1.F	do-	.	.	.	.	1c	.
2E	.	.	.	.	.	1c	ar-	.	.
1D	-ti-	.	.	.	.	.	.	2r	.
.	.	2F	-mi-	.	.	2B	-ti-	2f	ar-
=110	=110	=110	=110	=110	=110	=110	=110	=110	=110
0C	-fi-	0.E	-num	0G	ut	2.c	-fi-	1.g	-ti-
.	.	.	.	.	.	4d	.	.	.
.	.	.	.	.	.	0e	-ce	.	.
.	.	.	.	.	.	.	.	1.cc	-fi-
1AA	.	.	.	[1A	cas-	.	.	.	.
=111	=111	=111	=111	=111	=111	=111	=111	=111	=111
1D	-ce	0F	.	1A]	.	2r	.	1.a	.
.	.	.	.	.	.	1A	De	.	.
1r	.	.	.	0F	-tro-	.	.	.	.
.	.	.	.	.	.	2.c	douze	1f	.
1A	De	1r	.	.	.	.	.	.	.
.	.	.	.	.	.	4B	.	.	.
.	.	.	.	.	.	2A	.	2d	.
=112	=112	=112	=112	=112	=112	=112	=112	=112	=112
1B	douze	1G	Jhe-	1E	-rum	2G	.	1e	-ce
.	.	.	.	.	.	2B	.	.	.
2A	es-	1F	-sum,	1r	.	2c	.	2r	.
1d	-toil-	.	.	.	.	2.A	.	1a	De
.	.	1E	.	1r	.	.	.	.	.
.	.	.	.	.	.	4F	.	.	.
2c#i	.	.	.	.	.	2G	.	2g	.
=113	=113	=113	=113	=113	=113	=113	=113	=113	=113
1d	-les	0.r	.	1D	a-	2A	.	2f	douze
.	.	.	.	.	.	2B	es-	2d	es-
1G	.	.	.	1C	-ci-	1.c	-toil-	2e	-toil-
.	.	.	.	.	.	.	.	2.c	.
2r	.	.	.	2E	.	.	.	.	.
.	.	.	.	.	.	.	.	4B	.
2D	su-	.	.	2F	.	2d	.	2A	.
=114	=114	=114	=114	=114	=114	=114	=114	=114	=114
1E	.	0.r	.	0G	-es	1B	-les	4G	.
.	.	.	.	.	.	.	.	4A	.
.	.	.	.	.	.	.	.	4B	.
.	.	.	.	.	.	.	.	8A/L	.
.	.	.	.	.	.	.	.	8B/J	.
0C	-pe-	.	.	.	.	2r	.	2.c	.
.	.	.	.	.	.	2.e	su-	.	.
.	.	.	.	.	.	.	.	4d	.
.	.	.	.	1E	or-	.	.	1e	.
.	.	.	.	.	.	4c	.	.	.
.	.	.	.	.	.	2e	.	.	.
=115	=115	=115	=115	=115	=115	=115	=115	=115	=115
1D	-di-	0.r	.	1F	-di-	2d	-pe-	1A	-les
.	.	.	.	.	.	4A	.	.	.
.	.	.	.	.	.	4B	.	.	.
0AA	.	.	.	0E	-na-	2c	.	2r	.
.	.	.	.	.	.	4d	.	1a	su-
.	.	.	.	.	.	2e	.	.	.
.	.	.	.	.	.	4.c#i	-di-	.	.
.	.	.	.	.	.	.	.	2a	-pe-
.	.	.	.	.	.	8B	.	.	.
.	.	.	.	.	.	4c#i	.	.	.
=116	=116	=116	=116	=116	=116	=116	=116	=116	=116
1A	-tant	1r	.	1D	.	2d	-tant	2.f	-di-
.	.	.	.	.	.	4c	.	.	.
.	.	.	.	.	.	4B	.	4g	.
2.F	.	1r	.	1D	-ta,	1A	.	1a	-tant
4G	.	.	.	.	.	.	.	.	.
1A	.	1D	Jhe-	1r	.	2.F	la	1d	la
.	.	.	.	.	.	4G	.	.	.
=117	=117	=117	=117	=117	=117	=117	=117	=117	=117
1r	.	1D	-sum	0.r	.	1A	lu-	1f	lu-
2D	la	2F	Chris-	.	.	2B	.	2d	.
1C	lu-	2E	.	.	.	4c	.	2.e	.
.	.	.	.	.	.	4d	.	.	.
.	.	1G	.	.	.	2e	.	.	.
.	.	.	.	.	.	.	.	4c	.
2BB	.	.	.	.	.	2d	.	2d	.
=118	=118	=118	=118	=118	=118	=118	=118	=118	=118
2AA	.	2A	.	0.r	.	1c	.	2f	.
1C	.	1G	.	.	.	.	.	2.e	.
.	.	.	.	.	.	4c	-ne,	.	.
.	.	.	.	.	.	4B	.	4d	.
2D	.	2F	.	.	.	1A	.	2.d	.
1AA	-ne,	1E	.	.	.	.	.	.	.
.	.	.	.	.	.	.	.	4c#i	.
.	.	.	.	.	.	2A	la	4c#i	.
.	.	.	.	.	.	.	.	4B	.
=119	=119	=119	=119	=119	=119	=119	=119	=119	=119
1A	la	[0.Dl	-tum.	1D	or-	1.F	lu-	[0.dl	-ne.
0D	lu-	.	.	2.F	-di-	.	.	.	.
.	.	.	.	.	.	1B-i	.	.	.
.	.	.	.	4D	.	.	.	.	.
.	.	.	.	2.F	-na-	.	.	.	.
.	.	.	.	.	.	2A	.	.	.
.	.	.	.	4G	.	.	.	.	.
=120	=120	=120	=120	=120	=120	=120	=120	=120	=120
0.Dl	-ne.	0.D]	.	1A	.	0.Al	-ne.	0.d]	.
.	.	.	.	0Dl	-ta.	.	.	.	.
==	==	==	==	==	==	==	==	==	==
*-	*-	*-	*-	*-	*-	*-	*-	*-	*-
!!!RDF**kern: l = long note in original notation
!!!RDF**kern: i = editorial accidental
!!!RDF**kern: V = start of tuplet marker
!!!RDF**kern: Z = end of tuplet marker
!!!RDF**kern: N = signum congruentiae
!!!ENC: Jesse Rodin 17 April 2018
!!!END: 2018/04/17/
!!!EED: Jesse Rodin
!!!EEV: 2018/07/23/
!!!ONB: Translated from MusicXML and edited on 2018/07/23/ by Craig Sapp
!!muse2ps: C^@{COA}?\nEd. @{EED}^i2I150v80,80,80,80,120z16l2700t120c65
